icons/linear-ele-office-data-board-analysis.svg

<svg xmlns="http://www.w3.org/2000/svg" width="32px" height="32px" viewBox="0 0 32 32" version="1.1">
    <title>linear-ele-office-data-board-analysis</title>
    <g id="linear-ele-office-data-board-analysis" stroke-width="1" fill-rule="evenodd">
        <path d="M30,3 C30.5522847,3 31,3.44771525 31,4 C31,4.55228475 30.5522847,5 30,5 L28,5 L28,22 C28,22.5522847 27.5522847,23 27,23 L20.748,23 L24.277,28.9999799 L21.957,28.9999799 L18.428,23 L13.571,23 L10.042,28.9999799 L7.723,28.9999799 L11.251,23 L5,23 C4.44771525,23 4,22.5522847 4,22 L4,5 L2,5 C1.44771525,5 1,4.55228475 1,4 C1,3.44771525 1.44771525,3 2,3 L30,3 Z M26,5 L6,5 L6,21 L26,21 L26,5 Z M11,13 C11.5522847,13 12,13.4477153 12,14 L12,16 C12,16.5522847 11.5522847,17 11,17 C10.4477153,17 10,16.5522847 10,16 L10,14 C10,13.4477153 10.4477153,13 11,13 Z M16,11 C16.5522847,11 17,11.4477153 17,12 L17,16 C17,16.5522847 16.5522847,17 16,17 C15.4477153,17 15,16.5522847 15,16 L15,12 C15,11.4477153 15.4477153,11 16,11 Z M21,9 C21.5522847,9 22,9.44771525 22,10 L22,16 C22,16.5522847 21.5522847,17 21,17 C20.4477153,17 20,16.5522847 20,16 L20,10 C20,9.44771525 20.4477153,9 21,9 Z" id="&#24418;&#29366;" fill-rule="nonzero" />
    </g>
</svg>

<svg xmlns="http://www.w3.org/2000/svg" viewBox="0 0 32 32"><path fill="currentColor" d="M30 3a1 1 0 0 1 0 2h-2v17a1 1 0 0 1-1 1h-6.252l3.529 6h-2.32l-3.529-6h-4.857l-3.529 6H7.723l3.528-6H5a1 1 0 0 1-1-1V5H2a1 1 0 1 1 0-2zm-4 2H6v16h20zm-15 8a1 1 0 0 1 1 1v2a1 1 0 0 1-2 0v-2a1 1 0 0 1 1-1m5-2a1 1 0 0 1 1 1v4a1 1 0 0 1-2 0v-4a1 1 0 0 1 1-1m5-2a1 1 0 0 1 1 1v6a1 1 0 0 1-2 0v-6a1 1 0 0 1 1-1"/></svg>
